X:660
T: Con McGinley's
T: Limerick Lasses (b)
T: Gearchail\'i Luimnigh
S: B.Breathnach:"Ceol Rince na hEireann" IV/168
Z: B.Black
L: 1/8
M: 4/4
R: reel
K: Ddor
GEcE GEEF|GEcE G2 EF|GEcE GAcd|edce d2 cA|
GEcE GEEF|GEcE G2 EF|GEcE cdea|gece d2 cA ||
cdef gage|abag efed|cdef gage|afge d2 cA|
cdef gage|abag efed|cded eaab|afge d2 cA ||
